X:0259
T:Quick March 1st. Battn. Royals.
M:6/8
L:1/8
Q:3/8=86
I: :: ::
Z:Jack Campin * www.campin.me.uk * 2009
K:D
B/c/|dAG F>ED|dAG F>ED|E2F G2A|BGE E2
B/c/|dAG F>ED|dAG F>ED|D2E F2d|AFD D2:|
A   |d2e fdf |ece dAF |E2F G2A|BGE E2
A   |d2e fdf |ece dcd |D2E F2d|AFD D2:|

